X:69
T:Lass of Peatie’s Mill,The.2voices RH.069
T:Lass of Patie’s Mill,The,aka. RH.069
R:Air
S:Rev.R.Harrison’s MS,c1815,Cumbria
N:Numerous small errors in note lengths have been
N:corrected to allow the tune to play.
O:England
A:Temple Sowerby,Cumbria
Z:vmp.Simon Wilson. Review PJH, 2008.
M:C
L:1/8
Q:2/4=60
K:D
[V:1]|:A>G|F2E>D F>GA2|(d2>e2) f2zA|(Bc)(dc) BAGF|{F}E4 z2A>G|
[V:2]|:D2|D2A2 d2c2|(B2A>G F2)zF|G2F2 (GF)(ED)|A4 z2F>E|
%
[V:1] F2E>D F>GA2|(d3e/).f/ A2zd|(B>c)(dc) c>def|d6:|
[V:2] D2A2 d2c2|B2A>G F2zF|G2G2 A3A|D6:|
%
[V:1]|:f2|gfed c2BA|(d3e f2)zA|B>cdA BAGF|{GA/B/}E4 z2fg|
[V:2]|:d2|edcB A2G2|F3E D2zF|G2F2 GFED|A4 z2DE|
%
[V:1] a/g/f g/f/e fdBg|{f}He4 z2GF|G2AB A2c2|d6:|
[V:2] F2A2 d2G2|HA4 z2D2|G2FG A2A2|D6:|

